material/.icons/material/fleur-de-lis.svg

<svg xmlns="http://www.w3.org/2000/svg" viewBox="0 0 24 24"><path d="M12 2S9 4 9 7s2 5 2 9h-1s0-2-1-4c-2-4-6-2-6 1s2 3 2 3c0-3 3.5-3 3.5 0H7v2h3.5L9 20s1 1 2 0l1 2 1-2c1 1 2 0 2 0l-1.5-2H17v-2h-1.5c0-3 3.5-3 3.5 0 0 0 2 0 2-3s-4-5-6-1c-1 2-1 4-1 4h-1c0-4 2-6 2-9s-3-5-3-5z"/></svg>

<?xml version="1.0" encoding="UTF-8"?><!DOCTYPE svg PUBLIC "-//W3C//DTD SVG 1.1//EN" "http://www.w3.org/Graphics/SVG/1.1/DTD/svg11.dtd"><svg xmlns="http://www.w3.org/2000/svg" xmlns:xlink="http://www.w3.org/1999/xlink" version="1.1" id="mdi-fleur-de-lis" width="24" height="24" viewBox="0 0 24 24"><path d="M12 2S9 4 9 7 11 12 11 16H10S10 14 9 12C7 8 3 10 3 13S5 16 5 16C5 13 8.5 13 8.5 16H7V18H10.5L9 20S10 21 11 20L12 22L13 20C14 21 15 20 15 20L13.5 18H17V16H15.5C15.5 13 19 13 19 16C19 16 21 16 21 13S17 8 15 12C14 14 14 16 14 16H13C13 12 15 10 15 7S12 2 12 2Z" /></svg>
